svg/运营管理2.svg

<svg width="48" height="48" viewBox="0 0 48 48" fill="none" xmlns="http://www.w3.org/2000/svg"><rect width="48" height="48" fill="#DADADA"/><mask id="path-2-inside-1_2483_15959" fill="white"><path d="M447 91L-993 90.9999L-993 -18.0001L447 -18L447 91Z"/></mask><path d="M447 91L-993 90.9999L-993 -18.0001L447 -18L447 91Z" fill="white"/><path d="M0 10C0 4.47715 4.47715 0 10 0H38C43.5229 0 48 4.47715 48 10V38C48 43.5229 43.5228 48 38 48H10C4.47715 48 0 43.5228 0 38V10Z" fill="url(#paint0_linear_2483_15959)"/><path opacity="0.7" d="M23.825 34.6336C21.1509 34.6336 18.7293 33.5293 16.9899 31.7545C16.7691 31.5296 16.4693 31.3916 16.1538 31.3916H16.0907C15.0534 31.3916 14.5446 32.634 15.2703 33.3794C17.4396 35.6118 20.4726 37.0001 23.825 37.0001C27.1775 37.0001 30.2105 35.6118 32.3798 33.3794C33.1015 32.634 32.5967 31.3916 31.5594 31.3916H31.4963C31.1808 31.3916 30.881 31.5296 30.6601 31.7545C28.9208 33.5293 26.4991 34.6336 23.825 34.6336Z" fill="url(#paint1_linear_2483_15959)"/><path opacity="0.7" d="M34.0661 22.9986H34.1095C34.8825 22.9986 35.4584 22.2531 35.2257 21.5116C34.3698 18.7666 32.5516 16.4396 30.1614 14.9369C29.3963 14.4557 28.3984 15.0276 28.3984 15.9347V15.982C28.3984 16.3725 28.5956 16.7432 28.9269 16.9523C30.8201 18.1473 32.2636 19.9892 32.9539 22.1664C33.1077 22.6554 33.5534 22.9986 34.0661 22.9986Z" fill="url(#paint2_linear_2483_15959)"/><path opacity="0.7" d="M19.2729 15.9664V15.919C19.2729 15.0158 18.279 14.44 17.5139 14.9212C15.108 16.4239 13.2779 18.7548 12.4181 21.5117C12.1894 22.2493 12.7612 22.9987 13.5343 22.9987H13.5777C14.0904 22.9987 14.5361 22.6595 14.6899 22.1665C15.3801 19.9854 16.8315 18.1395 18.7326 16.9445C19.0678 16.7315 19.2729 16.3647 19.2729 15.9664Z" fill="url(#paint3_linear_2483_15959)"/><path d="M13.5498 24.0186H13.5537C14.4435 24.0186 15.2912 24.3685 15.9199 25.001H15.9209C16.549 25.6254 16.8994 26.4818 16.8994 27.3682C16.8994 28.254 16.5493 29.1058 15.917 29.7344L15.916 29.7354C15.2911 30.3639 14.4393 30.7177 13.5498 30.7178C12.66 30.7178 11.8114 30.3678 11.1826 29.7354L11.0664 29.6152H11.0674C10.5095 29.0016 10.2002 28.1982 10.2002 27.3682C10.2002 26.5376 10.5079 25.7369 11.0674 25.1221L11.1826 25.001C11.8075 24.3724 12.6602 24.0186 13.5498 24.0186ZM34.4551 24.0186H34.459C35.3486 24.0187 36.1966 24.3686 36.8252 25.001H36.8262C37.4543 25.6254 37.8047 26.4818 37.8047 27.3682C37.8046 28.254 37.4545 29.1058 36.8223 29.7344L36.8213 29.7354C36.1965 30.3639 35.3445 30.7177 34.4551 30.7178C33.5653 30.7178 32.7166 30.3678 32.0879 29.7354L31.9707 29.6143C31.4135 29.0007 31.1045 28.2014 31.1045 27.3682C31.1045 26.4784 31.4545 25.6297 32.0869 25.001H32.0879C32.7128 24.3724 33.5655 24.0186 34.4551 24.0186ZM23.8203 11.2002C24.7095 11.2002 25.5589 11.5529 26.1924 12.1826C26.8206 12.8071 27.1699 13.6596 27.1699 14.5498C27.1699 15.4394 26.8207 16.2873 26.1885 16.916L26.1875 16.917C25.5626 17.5456 24.7099 17.8994 23.8203 17.8994C22.9862 17.8993 22.1887 17.5918 21.5742 17.0322L21.4541 16.917L21.334 16.793C20.7785 16.1798 20.4707 15.3817 20.4707 14.5498C20.4707 13.66 20.8207 12.8114 21.4531 12.1826H21.4541C22.0789 11.5541 22.9308 11.2003 23.8203 11.2002Z" fill="#38D165" stroke="url(#paint4_linear_2483_15959)" stroke-width="0.4"/><defs><linearGradient id="paint0_linear_2483_15959" x1="24" y1="0.604" x2="24" y2="48.544" gradientUnits="userSpaceOnUse"><stop stop-color="#333333"/><stop offset="1" stop-color="#111111"/></linearGradient><linearGradient id="paint1_linear_2483_15959" x1="23.8242" y1="31.3916" x2="23.8242" y2="37.0001" gradientUnits="userSpaceOnUse"><stop stop-color="#E6E6E6"/><stop offset="1" stop-color="#C8E7C0"/></linearGradient><linearGradient id="paint2_linear_2483_15959" x1="31.8382" y1="14.7622" x2="31.8382" y2="22.9986" gradientUnits="userSpaceOnUse"><stop stop-color="#E6E6E6"/><stop offset="1" stop-color="#C8E7C0"/></linearGradient><linearGradient id="paint3_linear_2483_15959" x1="15.8201" y1="14.7471" x2="15.8201" y2="22.9987" gradientUnits="userSpaceOnUse"><stop stop-color="#E6E6E6"/><stop offset="1" stop-color="#C8E7C0"/></linearGradient><linearGradient id="paint4_linear_2483_15959" x1="24.0022" y1="11" x2="24.0022" y2="30.9177" gradientUnits="userSpaceOnUse"><stop stop-color="white"/><stop offset="1" stop-color="#3CB660"/></linearGradient></defs></svg>

<svg fill="none" viewBox="0 0 48 48"><path fill="#DADADA" d="M0 0h48v48H0z"/><path fill="white" d="M447 91H-993V-18H447z"/><path fill="url(#a)" d="M0 10C0 4.477 4.477 0 10 0h28c5.523 0 10 4.477 10 10v28c0 5.523-4.477 10-10 10H10C4.477 48 0 43.523 0 38z"/><path fill="url(#b)" d="M23.825 34.634a9.55 9.55 0 0 1-6.835-2.88 1.18 1.18 0 0 0-.836-.362h-.063c-1.038 0-1.546 1.242-.82 1.987A11.9 11.9 0 0 0 23.824 37c3.352 0 6.386-1.388 8.555-3.62.721-.746.217-1.988-.82-1.988h-.064c-.315 0-.615.138-.836.363a9.55 9.55 0 0 1-6.835 2.879" opacity=".7"/><path fill="url(#c)" d="M34.066 22.999h.043c.773 0 1.35-.746 1.117-1.487a12 12 0 0 0-5.065-6.575c-.765-.481-1.763.09-1.763.998v.047c0 .39.198.761.529.97a9.6 9.6 0 0 1 4.027 5.214c.154.49.6.833 1.112.833" opacity=".7"/><path fill="url(#d)" d="M19.273 15.966v-.047c0-.903-.994-1.479-1.76-.998a12 12 0 0 0-5.095 6.59c-.229.738.343 1.488 1.116 1.488h.044c.512 0 .958-.34 1.112-.832a9.6 9.6 0 0 1 4.043-5.222c.335-.213.54-.58.54-.979" opacity=".7"/><path fill="#38D165" stroke="url(#e)" stroke-width=".4" d="M13.55 24.019h.004c.89 0 1.737.35 2.366.982.629.624.98 1.48.98 2.367 0 .886-.35 1.738-.983 2.366l-.001.001a3.34 3.34 0 0 1-2.366.983c-.89 0-1.739-.35-2.367-.983l-.117-.12h.001a3.344 3.344 0 0 1 0-4.493l.116-.121a3.34 3.34 0 0 1 2.367-.982Zm20.905 0h.004c.89 0 1.738.35 2.366.982h.001c.628.624.979 1.48.979 2.367 0 .886-.35 1.738-.983 2.366v.001a3.34 3.34 0 0 1-2.367.983c-.89 0-1.738-.35-2.367-.983l-.117-.12a3.34 3.34 0 0 1-.866-2.247c0-.89.35-1.738.982-2.367a3.34 3.34 0 0 1 2.368-.982ZM23.82 11.2c.89 0 1.739.353 2.372.983.629.624.978 1.477.978 2.367s-.35 1.737-.982 2.366v.001a3.34 3.34 0 0 1-2.368.982 3.33 3.33 0 0 1-2.246-.867l-.12-.115-.12-.124a3.34 3.34 0 0 1-.863-2.243c0-.89.35-1.739.982-2.367h.001a3.34 3.34 0 0 1 2.366-.983Z"/><defs><linearGradient id="a" x1="24" x2="24" y1=".604" y2="48.544" gradientUnits="userSpaceOnUse"><stop stop-color="#333333"/><stop offset="1" stop-color="#111111"/></linearGradient><linearGradient id="b" x1="23.824" x2="23.824" y1="31.392" y2="37" gradientUnits="userSpaceOnUse"><stop stop-color="#E6E6E6"/><stop offset="1" stop-color="#C8E7C0"/></linearGradient><linearGradient id="c" x1="31.838" x2="31.838" y1="14.762" y2="22.999" gradientUnits="userSpaceOnUse"><stop stop-color="#E6E6E6"/><stop offset="1" stop-color="#C8E7C0"/></linearGradient><linearGradient id="d" x1="15.82" x2="15.82" y1="14.747" y2="22.999" gradientUnits="userSpaceOnUse"><stop stop-color="#E6E6E6"/><stop offset="1" stop-color="#C8E7C0"/></linearGradient><linearGradient id="e" x1="24.002" x2="24.002" y1="11" y2="30.918" gradientUnits="userSpaceOnUse"><stop stop-color="white"/><stop offset="1" stop-color="#3CB660"/></linearGradient></defs></svg>
